!!!SOCIAL_FUNCTION:	songs of games played in a ceremonial manner
!!!PDT:	1932
!!!OTL: No_21_Dancing_Song_from_the_South_God_(d).krn
!!!REG: Wisconsin
!!!LANG: Non-Tone
!!!LING_GROUP: Algonquin
**kern
*staff1
=1-
*clefF4
*k[f#]
*M3/4
2r
8r
16r
16F#\
=2!|:
8.A\L
16A\Jk
4A\
8F#\L
8F#\J
=3||
*M2/4
4..A\
16A\
=4||
*M3/4
8.F#\L
16E\Jk
4E\
8D/L
8C/J
=5
4D\
4r
8.A\L
16A\Jk
=6||
*M2/4
4F#\
4E\
=7
12F#\L
12E\
12E\J
8D\L
8D\J
=8
4D\
8BB/
16r
16F#\
=9||
*M3/4
8.D\L
16D\Jk
4D\
8D\L
8D\J
=10||
*M2/4
4D\
8BB/
16r
16F#\
=11||
*M3/4
8.D\L
16D\Jk
4D\
8D\L
8D\J
=12||
*M2/4
4D\
8BB/
16r
16F#\
=13||
*M3/4
8.D\L
16D\Jk
4D\
8D\L
8D\J
=14||
*M2/4
4D\
8D\
16r
16F#\
=15:|!
*M3/4
4D\
8D\
8r
4r
==
*-
